events/images/symposium.svg

<?xml version="1.0" encoding="UTF-8" standalone="no"?>
<svg
   width="492"
   height="492"
   overflow="hidden"
   version="1.1"
   id="svg14"
   sodipodi:docname="symposium.svg"
   inkscape:version="1.4.3 (0d15f75, 2025-12-25)"
   xmlns:inkscape="http://www.inkscape.org/namespaces/inkscape"
   xmlns:sodipodi="http://sodipodi.sourceforge.net/DTD/sodipodi-0.dtd"
   xmlns="http://www.w3.org/2000/svg"
   xmlns:svg="http://www.w3.org/2000/svg">
  <defs
     id="defs14" />
  <sodipodi:namedview
     id="namedview14"
     pagecolor="#ffffff"
     bordercolor="#000000"
     borderopacity="0.25"
     inkscape:showpageshadow="2"
     inkscape:pageopacity="0.0"
     inkscape:pagecheckerboard="0"
     inkscape:deskcolor="#d1d1d1"
     inkscape:zoom="0.6875"
     inkscape:cx="245.81818"
     inkscape:cy="246.54545"
     inkscape:window-width="1024"
     inkscape:window-height="1186"
     inkscape:window-x="0"
     inkscape:window-y="25"
     inkscape:window-maximized="0"
     inkscape:current-layer="svg14" />
  <g
     id="g14"
     transform="translate(-394,-114)">
    <path
       d="M 394,270.043 C 394,183.863 463.863,114 550.043,114 H 729.957 C 816.137,114 886,183.863 886,270.043 V 449.957 C 886,536.137 816.137,606 729.957,606 H 550.043 C 463.863,606 394,536.137 394,449.957 Z"
       fill="#fceebd"
       fill-rule="evenodd"
       id="path1" />
    <g
       id="g5">
      <g
         id="g4">
        <g
           id="g3">
          <path
             d="m 116.375,74.8125 h 44.333 V 66.5 c 0,-6.0958 -4.987,-11.0833 -11.083,-11.0833 H 33.25 c -6.0958,0 -11.0833,4.9875 -11.0833,11.0833 v 74.812 c 0,6.096 4.9875,11.084 11.0833,11.084 h 16.625 v 27.708 l 27.7083,-27.708 h 16.625 V 96.9792 c 0,-12.1917 9.9747,-22.1667 22.1667,-22.1667 z"
             fill="#00883a"
             transform="matrix(1,0,0,1.00376,507,114)"
             id="path2" />
          <path
             d="M 232.75,85.8958 H 116.375 c -6.096,0 -11.083,4.9875 -11.083,11.0834 v 74.8128 c 0,6.095 4.987,11.083 11.083,11.083 h 72.042 l 27.708,27.708 v -27.708 h 16.625 c 6.096,0 11.083,-4.988 11.083,-11.083 V 96.9792 c 0,-6.0959 -4.987,-11.0834 -11.083,-11.0834 z"
             fill="#00883a"
             transform="matrix(1,0,0,1.00376,507,114)"
             id="path3" />
        </g>
      </g>
    </g>
    <g
       id="g13">
      <g
         id="g12">
        <g
           id="g11">
          <path
             d="m 191.354,93.5896 c 0,13.5684 -10.785,24.3544 -24.354,24.3544 -13.569,0 -24.354,-10.786 -24.354,-24.3544 0,-13.5688 10.785,-24.3542 24.354,-24.3542 13.569,0 24.354,11.1334 24.354,24.3542"
             fill="#00883a"
             transform="matrix(1,0,0,1.00299,473,271)"
             id="path5" />
          <path
             d="m 288.771,107.506 c 0,13.569 -10.786,24.354 -24.354,24.354 -13.569,0 -24.355,-10.785 -24.355,-24.354 0,-13.5685 10.786,-24.3539 24.355,-24.3539 13.568,0 24.354,10.7854 24.354,24.3539"
             fill="#00883a"
             transform="matrix(1,0,0,1.00299,473,271)"
             id="path6" />
          <path
             d="m 93.9375,107.506 c 0,13.569 -10.7854,24.354 -24.3542,24.354 -13.5687,0 -24.3541,-10.785 -24.3541,-24.354 0,-13.5685 10.7854,-24.3539 24.3541,-24.3539 13.5688,0 24.3542,10.7854 24.3542,24.3539"
             fill="#00883a"
             transform="matrix(1,0,0,1.00299,473,271)"
             id="path7" />
          <path
             d="m 29.9208,264.765 c 0,-50.796 61.2334,-91.85 137.0792,-91.85 75.498,0 137.079,41.054 137.079,91.85 z"
             fill="#00883a"
             transform="matrix(1,0,0,1.00299,473,271)"
             id="path8" />
          <path
             d="m 61.2333,185.788 c 14.6125,-9.742 31.6605,-17.396 50.0997,-22.267 v -3.827 c 0,-3.827 -1.739,-7.654 -4.175,-10.09 -1.043,-1.044 -3.479,-2.435 -6.61,-3.827 -19.1355,-9.046 -41.7501,-9.046 -61.2334,-0.348 -3.4792,1.392 -6.2625,3.131 -7.6542,4.175 -2.0875,2.436 -3.8271,6.263 -3.8271,10.09 v 59.146 c 8.0021,-12.177 19.1355,-23.659 33.4,-33.052"
             fill="#00883a"
             transform="matrix(1,0,0,1.00299,473,271)"
             id="path9" />
          <path
             d="m 208.75,160.042 v -14.265 c 0,-3.827 -1.74,-7.654 -4.175,-10.089 -1.044,-1.044 -3.479,-2.436 -6.61,-3.828 -19.136,-9.045 -41.75,-9.045 -61.234,-0.348 -3.479,1.392 -6.262,3.132 -7.654,4.176 -2.783,2.435 -4.175,6.262 -4.175,10.089 v 14.265 c 13.569,-2.784 27.485,-4.175 41.75,-4.175 14.265,0 28.529,1.739 42.098,4.175"
             fill="#00883a"
             transform="matrix(1,0,0,1.00299,473,271)"
             id="path10" />
          <path
             d="m 306.167,218.84 v -59.146 c 0,-3.827 -1.74,-7.654 -4.175,-10.09 -1.044,-1.044 -3.479,-2.435 -6.611,-3.827 -19.135,-9.046 -41.75,-9.046 -61.233,-0.348 -3.479,1.392 -6.263,3.131 -7.654,4.175 -2.784,2.436 -4.175,6.263 -4.175,10.09 v 3.827 c 18.439,4.871 35.487,12.525 50.1,22.267 14.612,9.393 25.746,20.875 33.748,33.052"
             fill="#00883a"
             transform="matrix(1,0,0,1.00299,473,271)"
             id="path11" />
        </g>
      </g>
    </g>
  </g>
</svg>

<svg width="1280" height="720" xmlns="http://www.w3.org/2000/svg" xmlns:xlink="http://www.w3.org/1999/xlink" overflow="hidden"><g><rect x="0" y="0" width="1280" height="720" fill="#FFFFFF"/><path d="M394 270.043C394 183.863 463.863 114 550.043 114L729.957 114C816.137 114 886 183.863 886 270.043L886 449.957C886 536.137 816.137 606 729.957 606L550.043 606C463.863 606 394 536.137 394 449.957Z" fill="#FCEEBD" fill-rule="evenodd"/><g><g><g><path d="M116.375 74.8125 160.708 74.8125 160.708 66.5C160.708 60.4042 155.721 55.4167 149.625 55.4167L33.25 55.4167C27.1542 55.4167 22.1667 60.4042 22.1667 66.5L22.1667 141.312C22.1667 147.408 27.1542 152.396 33.25 152.396L49.875 152.396 49.875 180.104 77.5833 152.396 94.2083 152.396 94.2083 96.9792C94.2083 84.7875 104.183 74.8125 116.375 74.8125Z" fill="#00883A" transform="matrix(1 0 0 1.00376 507 114)"/><path d="M232.75 85.8958 116.375 85.8958C110.279 85.8958 105.292 90.8833 105.292 96.9792L105.292 171.792C105.292 177.887 110.279 182.875 116.375 182.875L188.417 182.875 216.125 210.583 216.125 182.875 232.75 182.875C238.846 182.875 243.833 177.887 243.833 171.792L243.833 96.9792C243.833 90.8833 238.846 85.8958 232.75 85.8958Z" fill="#00883A" transform="matrix(1 0 0 1.00376 507 114)"/></g></g></g><g><g><g><path d="M191.354 93.5896C191.354 107.158 180.569 117.944 167 117.944 153.431 117.944 142.646 107.158 142.646 93.5896 142.646 80.0208 153.431 69.2354 167 69.2354 180.569 69.2354 191.354 80.3688 191.354 93.5896" fill="#00883A" transform="matrix(1 0 0 1.00299 473 271)"/><path d="M288.771 107.506C288.771 121.075 277.985 131.86 264.417 131.86 250.848 131.86 240.062 121.075 240.062 107.506 240.062 93.9375 250.848 83.1521 264.417 83.1521 277.985 83.1521 288.771 93.9375 288.771 107.506" fill="#00883A" transform="matrix(1 0 0 1.00299 473 271)"/><path d="M93.9375 107.506C93.9375 121.075 83.1521 131.86 69.5833 131.86 56.0146 131.86 45.2292 121.075 45.2292 107.506 45.2292 93.9375 56.0146 83.1521 69.5833 83.1521 83.1521 83.1521 93.9375 93.9375 93.9375 107.506" fill="#00883A" transform="matrix(1 0 0 1.00299 473 271)"/><path d="M29.9208 264.765C29.9208 213.969 91.1542 172.915 167 172.915 242.498 172.915 304.079 213.969 304.079 264.765L29.9208 264.765Z" fill="#00883A" transform="matrix(1 0 0 1.00299 473 271)"/><path d="M61.2333 185.788C75.8458 176.046 92.8938 168.392 111.333 163.521L111.333 159.694C111.333 155.867 109.594 152.04 107.158 149.604 106.115 148.56 103.679 147.169 100.548 145.777 81.4125 136.731 58.7979 136.731 39.3146 145.429 35.8354 146.821 33.0521 148.56 31.6604 149.604 29.5729 152.04 27.8333 155.867 27.8333 159.694L27.8333 218.84C35.8354 206.663 46.9688 195.181 61.2333 185.788" fill="#00883A" transform="matrix(1 0 0 1.00299 473 271)"/><path d="M208.75 160.042 208.75 145.777C208.75 141.95 207.01 138.123 204.575 135.688 203.531 134.644 201.096 133.252 197.965 131.86 178.829 122.815 156.215 122.815 136.731 131.512 133.252 132.904 130.469 134.644 129.077 135.688 126.294 138.123 124.902 141.95 124.902 145.777L124.902 160.042C138.471 157.258 152.387 155.867 166.652 155.867 180.917 155.867 195.181 157.606 208.75 160.042" fill="#00883A" transform="matrix(1 0 0 1.00299 473 271)"/><path d="M306.167 218.84 306.167 159.694C306.167 155.867 304.427 152.04 301.992 149.604 300.948 148.56 298.513 147.169 295.381 145.777 276.246 136.731 253.631 136.731 234.148 145.429 230.669 146.821 227.885 148.56 226.494 149.604 223.71 152.04 222.319 155.867 222.319 159.694L222.319 163.521C240.758 168.392 257.806 176.046 272.419 185.788 287.031 195.181 298.165 206.663 306.167 218.84" fill="#00883A" transform="matrix(1 0 0 1.00299 473 271)"/></g></g></g></g></svg>
